FINK
CUT[KENNT IHR DAS LAND]
REG[Europa, Mitteleuropa, Deutschland]
KEY[F0464  16  C 3/4]
MEL[  -1__-3__-5__  1__3__2__  2_.11__
    -6__  -6__3__3__  4___2__  1_.-7-7__
    -5__  -5___1__  -7__-6__-5__  -5_3_4_3_2_1_  1__-7_0_
    -5__  -6b_.-6b-6b__3__  3b___2b_.1  1__0_
    1_-6b_-5_  -4#_.22__2__  2___
    -5__  1_.-5-5__-7__  1_.-5-5__
    2__  3_.11__2__  3_.11_
    -5_1_3_  5___.  ^__4__2__  1___-7__  1___. //] >>
FCT[Vaterlands -, Heimat - Lied]
